X:1
T:Which Bid, My Brother?
T:Which Bid, My Brother?
T:Daniel Brink Towner
T:Cora M. Turrell, 1909
T:Public Domain Courtesy of the Cyber Hymnal™
C:Daniel Brink Towner
Z:Public Domain
Z:Courtesy of the Cyber Hymnal™
%%score ( 1 2 ) ( 3 4 )
L:1/8
Q:1/4=100
M:4/4
K:G
V:1 treble 
V:2 treble 
V:3 bass 
V:4 bass 
V:1
 [B,D]2 | [B,D]2 [^A,^C][B,D] [DB]2 [DG]D | [CF]2 [CE]4 [CE]2 | [B,D]2 [DF][DG] [DA]2 D[Dc] | %4
w: 1.~The|Sav- ior and Sa- tan, my|bro- ther, Each|of- fer a price for thy|
w: 2.~One|of- fers thee rich- es al-|lur- ing, Which|tempt thee to grat- i- fy|
w: 3.~One|of- fers thee plea- sures en-|tic- ing, Which|sa- tis- fy car- nal de-|
w: 4.~One|of- fers thee earth- ly en-|chant- ments, In|ev- en ex- change for thy|
 [DB]6 [B,D]2 | [B,D]2 [^A,^C][B,D] [DB]2 [DG]D | [CF]2 [CE]4 [CE]2 | [B,D]2 [DF][DG] [DA]2 D[DA] | %8
w: soul; De-|sir- ing just now to pos-|sess it, In|or- der thy life to con-|
w: pride; The|o- ther to all His co-|work- ers, Per-|mis- sion to toil by His|
w: sires, The|o- ther to lead up the|path- way, E’er|sought by the soul that as-|
w: soul; The|o- ther His life- blood hath|giv- en, With|Heav- en at last for thy|
 [DG]6 ||"^Refrain" [GB]2 | [Gd]3 [GB] [FA] G2 [GB] | [Gd]3 G [GB] [FA]2 [FA] | %12
w: trol.||||
w: side.||||
w: pires.||||
w: goal.||||
 [Fc]2 [Fc][Gc] [Ac] [Fd]2 [FA] | [GB]6 [GB]2 | [GB]2 [GA]G [Fc]2 [FB][FA] | %15
w: |||
w: |||
w: |||
w: |||
 [=Fd]4 !fermata![EG]2 [_EA]2 | [DB]2 [Dc][DB] D [DB]2 [CA] | [B,G]6 |] %18
w: |||
w: |||
w: |||
w: |||
V:2
 x2 | x7 D | x8 | x6 D x | x8 | x7 D | x8 | x6 D x | x6 || x2 | x5 G2 x | x3 G x4 | x8 | x8 | %14
 x3 G x4 | x8 | x4 D x3 | x6 |] %18
V:3
 G,2 | G,2 G,G, G,2 [G,B,][G,B,] | [C,A,]2 [C,G,]4 [C,G,]2 | %3
w: ~|~ ~ ~ ~ ~ ~|~ ~ ~|
 [D,G,]2 [D,A,][D,B,] [D,C]2 [D,C][D,A,] | G,6 G,2 | G,2 G,G, G,2 [G,B,][G,B,] | %6
w: ~ ~ ~ ~ ~ ~|~ ~|~ ~ ~ ~ ~ ~|
 [C,A,]2 [C,G,]4 [C,G,]2 | [D,G,]2 [D,A,][D,B,] [D,C]2 [D,C][D,C] | [G,,G,B,]6 || G,2 | %10
w: ~ ~ ~|~ ~ ~ ~ ~ ~|~|Which|
 [G,B,]3 [G,D] [D,C] [G,B,]2 G, | [G,B,]3 [B,,D] [D,D] [D,D]2 [D,D] | %12
w: bid, my bro- ther? which|bid, my bro- ther? Which|
 [D,D]2 [D,D][E,D] [F,D] [D,A,]2 [D,D] | [G,D]6 [G,D]2 | [G,D]2 [G,C][G,B,] [D,D]2 [D,D][C,D] | %15
w: bid are you go- ing to|take? The|Sav- ior and Sa- tan each|
 [B,,G,]4 !fermata![C,C]2 [C,C]2 | [D,G,]2 [D,A,][D,G,] [D,F,] [D,F,]2 [D,F,] | [G,,G,]6 |] %18
w: of- fer, Which|bid are you go- ing to|take?|
V:4
 G,2 | G,2 G,G, G,2 x2 | x8 | x8 | G,6 G,2 | G,2 G,G, G,2 x2 | x8 | x8 | x6 || G,2 | x7 G, | x8 | %12
 x8 | x8 | x8 | x8 | x8 | x6 |] %18

